<?xml version="1.0" encoding="UTF-8"?>
<map version="1.10" tiledversion="1.12.2" orientation="orthogonal" renderorder="right-down" width="724" height="543" tilewidth="2" tileheight="2" infinite="0" nextlayerid="9" nextobjectid="2">
 <imagelayer id="2" name="horizonte" locked="1">
  <image source="../../../public/assets/backgrounds/zone-01/horizon-mountains-village.png" width="1448" height="1086"/>
 </imagelayer>
 <imagelayer id="3" name="terreno" locked="1">
  <image source="../../../public/assets/backgrounds/zone-01/terrain-meadow-river-bridges.png" width="1448" height="1086"/>
 </imagelayer>
 <imagelayer id="4" name="medio" locked="1">
  <image source="../../../public/assets/backgrounds/zone-01/midground-cherry-tree-v01.png" width="1448" height="1086"/>
 </imagelayer>
 <objectgroup id="6" name="estaciones">
  <object id="1" name="apr-a" x="344" y="1040">
   <properties>
    <property name="learningId" value="apr-a"/>
   </properties>
   <point/>
  </object>
 </objectgroup>
 <objectgroup id="7" name="decoraciones"/>
 <imagelayer id="5" name="primer-plano" locked="1">
  <image source="../../../public/assets/backgrounds/zone-01/foreground-oak-foliage-v03.png" width="1448" height="1086"/>
 </imagelayer>
 <objectgroup id="8" name="colisiones"/>
</map>
